X: 1
T: Lord Pilu Goes To The Country
M: 4/4
L: 1/8
R: reel
K: Amix
A3B cAec|dBGA BGec|A3B cAef|gdBb gedB|
A3B cAec|dBGA BGec|A3B cAef|~g3e dBGB||
A2eA gAfe|A2eA gAfe|A2eA gAfe|dBGA BGec|
A2eA gAfe|A2eA gAfe|A2eA gAfe|~g3e dBGB||
